X:3893
L:1/8
M:4/4
K:C
[M:4/4][K:D] f a ba dace[Q:1/8=150](3A/B/c/ | d2 d2 d2 ef | ABAG F3 A | BAGF E2 FA | B2 c2 d4 | 
 d2 d2 d2 ef | ABAG F3 A | BAGF E2 FA | B2 c2 d3 :| (3A/B/c/ | dcde f2 f2 | gfe^c d2 fg | 
 agfe d2 cd | BABc A4 | agfe d2 ef | ABAG F3 A | BAGF E2 FA | Bgec d3 :|

